src/themes/basic/images/pictograms/magnify.svg

<svg xmlns="http://www.w3.org/2000/svg" viewBox="4.45048e-06 -0.167999 10 10"><g transform="matrix(.06305 0 0 .06335 0-.157)"><path d="m67.37 66.43c-3.964 3.973-3.972 10.405 0 14.369l73.899 73.903c3.971 3.964 10.401 3.964 14.373 0 3.963-3.972 3.963-10.412 0-14.376l-73.903-73.889c-1.981-1.984-4.58-2.976-7.18-2.976-2.6 0-5.201.992-7.188 2.976z"/><g fill="#666"><path d="m86.16 99.58l14.09 14.1 14.37-14.369-14.1-14.09-14.364 14.368"/><path d="m0 55.829c0 30.93 25.07 56.01 56 56.01 30.924 0 55.998-25.08 55.998-56.01 0-30.92-25.07-55.997-55.998-55.997-30.93-.005-56 25.07-56 55.992z"/></g><path d="m5.804 55.611c0 27.609 22.377 49.992 49.981 49.992 27.597 0 49.98-22.383 49.98-49.992 0-27.595-22.377-49.969-49.975-49.969-27.604 0-49.981 22.374-49.981 49.972z" fill="#0ff"/><path d="m55.891 16.495c9.06 0 17.537 1.599 24.78 4.372-6.461-5.217-15.177-8.424-24.78-8.424-9.603 0-18.321 3.207-24.781 8.424 7.243-2.773 15.717-4.372 24.781-4.372" fill="#fff"/><path d="m76.75 51.43v7.932h-16.468v16.771h-8.64v-16.771h-16.468v-7.932h16.468v-16.869h8.64v16.869h16.468" fill="#1a1a1a"/></g></svg>

<?xml version="1.0" encoding="UTF-8" standalone="no"?>
<svg
   xmlns:dc="http://purl.org/dc/elements/1.1/"
   xmlns:cc="http://creativecommons.org/ns#"
   xmlns:rdf="http://www.w3.org/1999/02/22-rdf-syntax-ns#"
   xmlns:svg="http://www.w3.org/2000/svg"
   xmlns="http://www.w3.org/2000/svg"
   xmlns:sodipodi="http://sodipodi.sourceforge.net/DTD/sodipodi-0.dtd"
   xmlns:inkscape="http://www.inkscape.org/namespaces/inkscape"
   viewBox="4.45048e-06 -0.167999 10 10"
   id="svg2"
   version="1.1"
   inkscape:version="0.48.5 r10040"
   width="100%"
   height="100%"
   sodipodi:docname="magnify.svg">
  <metadata
     id="metadata24">
    <rdf:RDF>
      <cc:Work
         rdf:about="">
        <dc:format>image/svg+xml</dc:format>
        <dc:type
           rdf:resource="http://purl.org/dc/dcmitype/StillImage" />
      </cc:Work>
    </rdf:RDF>
  </metadata>
  <defs
     id="defs22" />
  <sodipodi:namedview
     pagecolor="#ffffff"
     bordercolor="#666666"
     borderopacity="1"
     objecttolerance="10"
     gridtolerance="10"
     guidetolerance="10"
     inkscape:pageopacity="0"
     inkscape:pageshadow="2"
     inkscape:window-width="1918"
     inkscape:window-height="1036"
     id="namedview20"
     showgrid="false"
     inkscape:zoom="2.95"
     inkscape:cx="162.41944"
     inkscape:cy="-50.449397"
     inkscape:window-x="0"
     inkscape:window-y="19"
     inkscape:window-maximized="0"
     inkscape:current-layer="svg2" />
  <g
     transform="matrix(0.06304604,0,0,0.06335409,4.45048e-6,-0.15735514)"
     id="g4">
    <path
       d="m 67.37,66.43 c -3.964,3.973 -3.972,10.405 0,14.369 l 73.899,73.903 c 3.971,3.964 10.401,3.964 14.373,0 3.963,-3.972 3.963,-10.412 0,-14.376 L 81.739,66.437 c -1.981,-1.984 -4.58,-2.976 -7.18,-2.976 -2.6,0 -5.201,0.992 -7.188,2.976 z"
       id="path6"
       inkscape:connector-curvature="0" />
    <g
       id="g8"
       style="fill:#666666">
      <path
         d="m 86.16,99.58 14.09,14.1 14.37,-14.369 -14.1,-14.09 -14.364,14.368"
         id="path10"
         inkscape:connector-curvature="0" />
      <path
         d="m 0,55.829 c 0,30.93 25.07,56.01 56,56.01 30.924,0 55.998,-25.08 55.998,-56.01 C 111.998,24.909 86.928,-0.168 56,-0.168 25.07,-0.173 0,24.902 0,55.824 z"
         id="path12"
         inkscape:connector-curvature="0" />
    </g>
    <path
       d="m 5.804,55.611 c 0,27.609 22.377,49.992 49.981,49.992 27.597,0 49.98,-22.383 49.98,-49.992 C 105.765,28.016 83.388,5.642 55.79,5.642 28.186,5.642 5.809,28.016 5.809,55.614 z"
       id="path14"
       inkscape:connector-curvature="0"
       style="fill:#00ffff" />
    <path
       d="m 55.891,16.495 c 9.06,0 17.537,1.599 24.78,4.372 -6.461,-5.217 -15.177,-8.424 -24.78,-8.424 -9.603,0 -18.321,3.207 -24.781,8.424 7.243,-2.773 15.717,-4.372 24.781,-4.372"
       id="path16"
       inkscape:connector-curvature="0"
       style="fill:#ffffff" />
    <path
       d="m 76.75,51.43 v 7.932 H 60.282 v 16.771 h -8.64 V 59.362 H 35.174 V 51.43 H 51.642 V 34.561 h 8.64 V 51.43 H 76.75"
       id="path18"
       inkscape:connector-curvature="0"
       style="fill:#1a1a1a" />
  </g>
</svg>
